X:1
T:Title
%%score 1 { ( 2 5 ) | ( 3 4 ) }
L:1/8
M:4/4
K:Eb
V:1 treble nm="Akkordion"
V:2 treble nm="Grand Piano"
V:5 treble 
V:3 treble 
V:4 treble 
V:1
 z4 z2[Q:1/4=84] Bc | BGFE EDCD | EGc=A B2 Bc | BF=EF AAG_G | G6 EF | GGGG GEEE | EEFF G2 GB | %7
 B=AAG Fedc |[M:3/4] B6 |[M:1/4] z2 |[M:4/4] z8 |[M:3/4] z6 | %12
[M:1/4] z2[Q:1/4=81][Q:1/4=79][Q:1/4=76][Q:1/4=74][Q:1/4=71][Q:1/4=68][Q:1/4=66] |[M:4/4] z8 | %14
[M:3/4] z6 |] %15
V:2
 z4 z2 bc' | [Bgb][GBg][FAf][EGe] [EAe][DAd][CAc][DAd] | [EGe][GBg][c_gc'][g=a] [B=gb]2 [gb][gc'] | %3
 [Bdb][df][_d=e][=df] [Ada]ag_g | ge'c'd' e'2 ef | [GBg][GBg][G=Bg][Gdg] [Geg]eee | %6
 [Ece]eff [GBg]2 gb | [Beb]=aag [Ff][ge'][dfd'][cec'] | %8
[M:3/4] [Bb]-[B-fb-] [B-=eb-][B-_eb-] [Bdb]2 |[M:1/4] [Ac][Ad] | %10
[M:4/4] [Ge][GB][_Gd][Gc] [=GB]2 [FG][FG] |[M:3/4] [=Ec][EG] [Ec][EB] [FA]2 |[M:1/4] [Ac][Ad] | %13
[M:4/4] [Ge][GB]GE [DA][DA][DG][DF] |[M:3/4] [B,E]6 |] %15
V:3
 z4 z2 [Bg][cg] | [E,,E,]2 [B,,,B,,]2 [F,,F,]2 [B,,,B,,]2 | %2
 [E,,E,]2 E,-[E,C=A] [E,B,]2[K:treble] Bc | z[K:treble] F=EF z [Ad][Ge][_Ge] | %4
 [Ge][eg][ceg][=Beg] [_Beg]2 [EG][FA] | [E,,E,]2 [D,,D,]2 z[K:treble] [EG][EG][EG] | %6
 z[K:treble] [Ec][F=B][FB][K:bass] [E,,E,]2[K:treble] [G_B][Be] | %7
 z[K:treble] [=Ae][Ae]G z e[K:bass]G,=A, |[M:3/4] B,A, G,_G, [B,,F,]2 |[M:1/4] [B,,B,][B,,B,] | %10
[M:4/4] [E,B,][E,B,][E,A,][E,A,] [E,B,]2 [D,B,][D,B,] |[M:3/4] [C,C][C,C] [C,G,][C,C] [F,C]2 | %12
[M:1/4] [F,B,][B,,B,] |[M:4/4] [E,B,][E,E][E,B,E][E,G,] [B,,F,][B,,F,][B,,B,][B,,A,] | %14
[M:3/4] [E,G,]6 |] %15
V:4
 x8 | x8 | z2 .=A,2 z4[K:treble] | B,,2[K:treble] z2 B,2 z2 | E6 z2 | z4 [C,,C,]4[K:treble] | %6
 [A,,,A,,]4[K:treble][K:bass] z4[K:treble] | [F,,F,]2[K:treble] z2 F,4[K:bass] |[M:3/4] B,,4 z2 | %9
[M:1/4] x2 |[M:4/4] x8 |[M:3/4] x6 |[M:1/4] x2 |[M:4/4] x8 |[M:3/4] x6 |] %15
V:5
 x8 | x8 | x8 | x8 | x8 | x8 | x8 | x8 |[M:3/4] .d2 z2 z2 |[M:1/4] x2 |[M:4/4] x8 |[M:3/4] x6 | %12
[M:1/4] x2 |[M:4/4] x8 |[M:3/4] x6 |] %15

